dist/assets/img/telegram.svg

<svg width="25" height="25" viewBox="0 0 25 25" fill="none" xmlns="http://www.w3.org/2000/svg">
<path fill-rule="evenodd" clip-rule="evenodd" d="M25 12.5C25 19.4036 19.4036 25 12.5 25C5.59644 25 0 19.4036 0 12.5C0 5.59644 5.59644 0 12.5 0C19.4036 0 25 5.59644 25 12.5ZM12.9479 9.22799C11.7321 9.73369 9.30223 10.7804 5.65822 12.368C5.06649 12.6033 4.75652 12.8335 4.7283 13.0586C4.68061 13.439 5.15699 13.5888 5.8057 13.7928C5.89394 13.8205 5.98537 13.8493 6.0791 13.8797C6.71733 14.0872 7.57586 14.3299 8.02217 14.3396C8.42702 14.3483 8.87888 14.1814 9.37775 13.8388C12.7825 11.5406 14.54 10.3789 14.6503 10.3539C14.7282 10.3362 14.836 10.314 14.9091 10.379C14.9822 10.4439 14.975 10.5669 14.9673 10.5999C14.9201 10.8011 13.0501 12.5396 12.0824 13.4393C11.7807 13.7198 11.5667 13.9187 11.523 13.9641C11.425 14.0659 11.3251 14.1622 11.2291 14.2547C10.6362 14.8263 10.1916 15.255 11.2538 15.9549C11.7642 16.2913 12.1727 16.5695 12.5801 16.847C13.0252 17.15 13.469 17.4523 14.0433 17.8288C14.1897 17.9247 14.3294 18.0243 14.4655 18.1213C14.9834 18.4905 15.4487 18.8222 16.0235 18.7694C16.3575 18.7386 16.7026 18.4245 16.8778 17.4878C17.2919 15.274 18.1059 10.4775 18.294 8.50096C18.3105 8.32779 18.2897 8.10616 18.2731 8.00888C18.2564 7.91159 18.2216 7.77297 18.0952 7.67036C17.9454 7.54884 17.7142 7.52321 17.6108 7.52503C17.1406 7.53331 16.4193 7.78413 12.9479 9.22799Z" fill="#A7A7A7"/>
</svg>

<svg width="25" height="25" fill="none" xmlns="http://www.w3.org/2000/svg"><path fill-rule="evenodd" clip-rule="evenodd" d="M25 12.5C25 19.404 19.404 25 12.5 25S0 19.404 0 12.5 5.596 0 12.5 0 25 5.596 25 12.5ZM12.948 9.228c-1.216.506-3.646 1.552-7.29 3.14-.592.235-.901.466-.93.69-.047.381.429.53 1.078.735.088.027.18.056.273.087.638.207 1.497.45 1.943.46.405.008.857-.159 1.356-.501 3.405-2.298 5.162-3.46 5.272-3.485.078-.018.186-.04.26.025.072.065.065.188.057.22-.047.202-1.917 1.94-2.885 2.84-.301.28-.515.48-.559.525a9.946 9.946 0 0 1-.294.29c-.593.572-1.037 1.001.025 1.7.51.337.919.616 1.326.893.445.303.889.605 1.463.982.147.096.286.195.423.292.517.37.983.701 1.557.648.335-.03.68-.345.855-1.281.414-2.214 1.228-7.01 1.416-8.987a2.206 2.206 0 0 0-.02-.492.527.527 0 0 0-.179-.339c-.15-.121-.38-.147-.484-.145-.47.008-1.192.26-4.663 1.703Z" fill="#A7A7A7"/></svg>
